__todo__/webkit.svg

<svg height="283" preserveAspectRatio="xMidYMid" viewBox="0 0 256 283" width="256" xmlns="http://www.w3.org/2000/svg" xmlns:xlink="http://www.w3.org/1999/xlink"><linearGradient id="a" x1="50%" x2="50%" y1="0%" y2="100%"><stop offset="0" stop-color="#34aadc"/><stop offset="1" stop-color="#007aff"/></linearGradient><path d="m242.793651 157.203703c17.608465 13.731962 17.608465 36.323254 0 50.165957l-82.850088 65.116077c-17.608466 13.731962-46.27866 13.731962-63.8871256 0l-82.8500882-65.005335c-17.6084656-13.731962-17.6084656-36.323254 0-50.165957l82.8500882-65.1160775c17.6084656-13.7319615 46.2786596-13.7319615 63.8871256 0z" fill="#ff9d00"/><path d="m96.2550929 231.842168-83.2170061-65.401929c-8.38972544-6.573618-13.0380868-15.375582-13.0380868-24.734631s4.64836136-18.161012 13.0380868-24.734631l83.2170061-65.5133463c8.3897261-6.5736178 19.7271921-10.2503872 31.7449071-10.2503872s23.241807 3.6767694 31.744907 10.2503872l83.217006 65.4019293c8.389726 6.573618 13.038087 15.375581 13.038087 24.734631 0 9.359049-4.648361 18.161012-13.038087 24.734631l-83.217006 65.401929c-8.5031 6.685035-19.727192 10.361804-31.744907 10.361804s-23.241807-3.676769-31.7449071-10.250387z" fill-opacity=".1"/><path d="m96.2550929 231.842168-83.2170061-65.401929c-8.38972544-6.573618-13.0380868-15.375582-13.0380868-24.734631s4.64836136-18.161012 13.0380868-24.734631l83.2170061-65.5133463c8.3897261-6.5736178 19.7271921-10.2503872 31.7449071-10.2503872s23.241807 3.6767694 31.744907 10.2503872l83.217006 65.4019293c8.389726 6.573618 13.038087 15.375581 13.038087 24.734631 0 9.359049-4.648361 18.161012-13.038087 24.734631l-83.217006 65.401929c-8.5031 6.685035-19.727192 10.361804-31.744907 10.361804s-23.241807-3.676769-31.7449071-10.250387z" fill="#fc0"/><path d="m96.2550929 190.634925-83.2170061-65.40193c-8.38972544-6.573618-13.0380868-15.375581-13.0380868-24.734631 0-9.3590489 4.64836136-18.1610119 13.0380868-24.7346304l83.2170061-65.5133461c8.3897261-6.57361807 19.7271921-10.2503875 31.7449071-10.2503875s23.241807 3.67676943 31.744907 10.2503875l83.217006 65.4019289c8.389726 6.573618 13.038087 15.3755815 13.038087 24.7346306 0 9.35905-4.648361 18.161013-13.038087 24.734631l-83.217006 65.401929c-8.5031 6.685035-19.727192 10.361805-31.744907 10.361805s-23.241807-3.67677-31.7449071-10.250387z" fill-opacity=".1"/><path d="m96.2550929 190.634925-83.2170061-65.40193c-8.38972544-6.573618-13.0380868-15.375581-13.0380868-24.734631 0-9.3590489 4.64836136-18.1610119 13.0380868-24.7346304l83.2170061-65.5133461c8.3897261-6.57361807 19.7271921-10.2503875 31.7449071-10.2503875s23.241807 3.67676943 31.744907 10.2503875l83.217006 65.4019289c8.389726 6.573618 13.038087 15.3755815 13.038087 24.7346306 0 9.35905-4.648361 18.161013-13.038087 24.734631l-83.217006 65.401929c-8.5031 6.685035-19.727192 10.361805-31.744907 10.361805s-23.241807-3.67677-31.7449071-10.250387z" fill="url(#a)"/><path d="m128.287315 163.176305c42.523535 0 76.99567-28.178135 76.99567-62.937625 0-34.7594914-34.472135-62.9376265-76.99567-62.9376265-42.5235337 0-76.9956691 28.1781351-76.9956691 62.9376265 0 34.75949 34.4721354 62.937625 76.9956691 62.937625zm0 6.478874c-46.9009565 0-84.9216939-31.078826-84.9216939-69.416499 0-38.3376745 38.0207374-69.4164997 84.9216939-69.4164997 46.900957 0 84.921695 31.0788252 84.921695 69.4164997 0 38.337673-38.020738 69.416499-84.921695 69.416499z" fill="#fff"/><path d="m133.962485 126.95305c4.256582-.557544 8.405421-1.744077 12.203417-3.5596l24.237016 9.962489-12.69558-19.019296c6.677973-8.602567 6.677973-19.498882 0-28.1014483l12.69558-19.0192959-22.842423 9.3892481-.656634 10.0439009c9.338123 7.8316153 9.099472 20.1998552-.603779 27.7604062-2.47595 1.980194-5.318945 3.369907-8.304672 4.357111zm-11.329844-53.3506255c-7.030277.9140467-12.299581 3.5755159-12.299581 3.5755159l-24.2149237-9.9620416 12.6955798 19.0192959c-6.6779733 8.6025663-6.6779733 19.4988813 0 28.1014483l-12.6955798 19.019296 23.4667257-9.645865.499739-9.407039c-9.816147-7.808696-9.737739-20.3010568.159929-28.1436441 2.302753-2.0615562 7.508205-4.2441205 8.289393-4.3602234-.000001 0 4.098718-8.196743 4.098718-8.196743z" fill="#8cc8f6"/><path d="m116.639358 98.1621564-3.225374 57.1737626 26.118405-53.025153 3.740034-57.0660505zm-.337469 46.1850756 20.920399-42.446087-18.332733-3.3450082z" fill="#fff"/></svg>

<?xml version="1.0" encoding="UTF-8"?>
<svg width="256px" height="283px" viewBox="0 0 256 283" version="1.1" xmlns="http://www.w3.org/2000/svg" preserveAspectRatio="xMidYMid">
    <title>WebKit</title>
    <defs>
        <linearGradient x1="50%" y1="0%" x2="50%" y2="100%" id="webkitLinearGradient-1">
            <stop stop-color="#34AADC" offset="0%"></stop>
            <stop stop-color="#007AFF" offset="100%"></stop>
        </linearGradient>
    </defs>
    <g>
        <path d="M242.793651,157.203703 C260.402116,170.935665 260.402116,193.526957 242.793651,207.36966 L159.943563,272.485737 C142.335097,286.217699 113.664903,286.217699 96.0564374,272.485737 L13.2063492,207.480402 C-4.4021164,193.74844 -4.4021164,171.157148 13.2063492,157.314445 L96.0564374,92.1983675 C113.664903,78.466406 142.335097,78.466406 159.943563,92.1983675 L242.793651,157.203703 Z" fill="#FF9D00"></path>
        <path d="M96.2550929,231.842168 L13.0380868,166.440239 C4.64836136,159.866621 0,151.064657 0,141.705608 C0,132.346559 4.64836136,123.544596 13.0380868,116.970977 L96.2550929,51.4576307 C104.644819,44.8840129 115.982285,41.2072435 128,41.2072435 C140.017715,41.2072435 151.241807,44.8840129 159.744907,51.4576307 L242.961913,116.85956 C251.351639,123.433178 256,132.235141 256,141.594191 C256,150.95324 251.351639,159.755203 242.961913,166.328822 L159.744907,231.730751 C151.241807,238.415786 140.017715,242.092555 128,242.092555 C115.982285,242.092555 104.758193,238.415786 96.2550929,231.842168 Z" fill-opacity="0.100000001" fill="#000000"></path>
        <path d="M96.2550929,231.842168 L13.0380868,166.440239 C4.64836136,159.866621 0,151.064657 0,141.705608 C0,132.346559 4.64836136,123.544596 13.0380868,116.970977 L96.2550929,51.4576307 C104.644819,44.8840129 115.982285,41.2072435 128,41.2072435 C140.017715,41.2072435 151.241807,44.8840129 159.744907,51.4576307 L242.961913,116.85956 C251.351639,123.433178 256,132.235141 256,141.594191 C256,150.95324 251.351639,159.755203 242.961913,166.328822 L159.744907,231.730751 C151.241807,238.415786 140.017715,242.092555 128,242.092555 C115.982285,242.092555 104.758193,238.415786 96.2550929,231.842168 Z" fill="#FFCC00"></path>
        <path d="M96.2550929,190.634925 L13.0380868,125.232995 C4.64836136,118.659377 0,109.857414 0,100.498364 C0,91.1393151 4.64836136,82.3373521 13.0380868,75.7637336 L96.2550929,10.2503875 C104.644819,3.67676943 115.982285,-1.46397538e-14 128,-1.46397538e-14 C140.017715,-1.46397538e-14 151.241807,3.67676943 159.744907,10.2503875 L242.961913,75.6523164 C251.351639,82.2259344 256,91.0278979 256,100.386947 C256,109.745997 251.351639,118.54796 242.961913,125.121578 L159.744907,190.523507 C151.241807,197.208542 140.017715,200.885312 128,200.885312 C115.982285,200.885312 104.758193,197.208542 96.2550929,190.634925 Z" fill-opacity="0.100000001" fill="#000000"></path>
        <path d="M96.2550929,190.634925 L13.0380868,125.232995 C4.64836136,118.659377 0,109.857414 0,100.498364 C0,91.1393151 4.64836136,82.3373521 13.0380868,75.7637336 L96.2550929,10.2503875 C104.644819,3.67676943 115.982285,-1.46397538e-14 128,-1.46397538e-14 C140.017715,-1.46397538e-14 151.241807,3.67676943 159.744907,10.2503875 L242.961913,75.6523164 C251.351639,82.2259344 256,91.0278979 256,100.386947 C256,109.745997 251.351639,118.54796 242.961913,125.121578 L159.744907,190.523507 C151.241807,197.208542 140.017715,200.885312 128,200.885312 C115.982285,200.885312 104.758193,197.208542 96.2550929,190.634925 Z" fill="url(#webkitLinearGradient-1)"></path>
        <path d="M128.287315,163.176305 L128.287315,163.176305 C170.81085,163.176305 205.282985,134.99817 205.282985,100.23868 C205.282985,65.4791886 170.81085,37.3010535 128.287315,37.3010535 C85.7637813,37.3010535 51.2916459,65.4791886 51.2916459,100.23868 C51.2916459,134.99817 85.7637813,163.176305 128.287315,163.176305 L128.287315,163.176305 Z M128.287315,169.655179 L128.287315,169.655179 C81.3863585,169.655179 43.3656211,138.576353 43.3656211,100.23868 C43.3656211,61.9010055 81.3863585,30.8221803 128.287315,30.8221803 C175.188272,30.8221803 213.20901,61.9010055 213.20901,100.23868 C213.20901,138.576353 175.188272,169.655179 128.287315,169.655179 L128.287315,169.655179 Z" fill="#FFFFFF"></path>
        <path d="M133.962485,126.95305 C138.219067,126.395506 142.367906,125.208973 146.165902,123.39345 L170.402918,133.355939 L157.707338,114.336643 C164.385311,105.734076 164.385311,94.837761 157.707338,86.2351947 L170.402918,67.2158988 L147.560495,76.6051469 L146.903861,86.6490478 C156.241984,94.4806631 156.003333,106.848903 146.300082,114.409454 C143.824132,116.389648 140.981137,117.779361 137.99541,118.766565 L133.962485,126.95305 Z M122.632641,73.6024245 C115.602364,74.5164712 110.33306,77.1779404 110.33306,77.1779404 L86.1181363,67.2158988 L98.8137161,86.2351947 C92.1357428,94.837761 92.1357428,105.734076 98.8137161,114.336643 L86.1181363,133.355939 L109.584862,123.710074 L110.084601,114.303035 C100.268454,106.494339 100.346862,94.0019782 110.24453,86.1593909 C112.547283,84.0978347 117.752735,81.9152704 118.533923,81.7991675 C118.533922,81.7991675 122.632641,73.6024245 122.632641,73.6024245 Z" fill="#8CC8F6"></path>
        <path d="M116.639358,98.1621564 L113.413984,155.335919 L139.532389,102.310766 L143.272423,45.2447155 L116.639358,98.1621564 Z M116.301889,144.347232 L137.222288,101.901145 L118.889555,98.5561368 L116.301889,144.347232 Z" fill="#FFFFFF"></path>
    </g>
</svg>
